static/assets/img/logos/brand/spotify.svg

<svg fill="none" height="36" viewBox="0 0 121 36" width="121" xmlns="http://www.w3.org/2000/svg"><path d="m17.9999 0c-9.94086 0-17.9999 8.05882-17.9999 17.9997 0 9.9419 8.05904 18.0003 17.9999 18.0003 9.9413 0 17.9999-8.0584 17.9999-18.0003 0-9.94024-8.0582-17.99884089-18.0001-17.99884089zm8.2546 25.9607c-.3232.5303-1.0141.6964-1.5426.3733-4.2269-2.5833-9.5471-3.1669-15.81267-1.7356-.60377.1384-1.2056-.2401-1.34316-.8437-.13821-.6037.23858-1.2056.84386-1.3431 6.85667-1.5676 12.73807-.8929 17.48257 2.0062.5287.3246.6964 1.0146.3718 1.5433zm2.2032-4.9005c-.4071.6606-1.2708.8678-1.9304.4622-4.8373-2.9735-12.2135-3.8348-17.93628-2.0976-.74221.2241-1.52609-.1941-1.75135-.935-.22354-.7422.19495-1.5246.93586-1.7503 6.53707-1.9835 14.66357-1.0227 20.21977 2.3916.6599.4063.8684 1.2704.4622 1.9294zm.1891-5.1035c-5.8021-3.4458-15.3726-3.7626-20.91149-2.0816-.88942.2698-1.83001-.2323-2.09954-1.1217-.26954-.8899.23213-1.8298 1.12221-2.1002 6.35822-1.93021 16.92802-1.55729 23.60712 2.4077.8.4748 1.0624 1.5081.5883 2.307-.4729.8-1.5089 1.0638-2.3064.5888zm20.325.6603c-3.1079-.7412-3.6612-1.2613-3.6612-2.3543 0-1.0326.9722-1.7275 2.4179-1.7275 1.4014 0 2.791.5277 4.2479 1.614.0441.0329.0993.046.1537.0374.0544-.0082.1025-.038.1344-.083l1.5175-2.1391c.0623-.0881.0453-.2095-.0387-.2768-1.734-1.3913-3.6865-2.06776-5.9688-2.06776-3.3556 0-5.6996 2.01376-5.6996 4.89506 0 3.0898 2.022 4.1839 5.5161 5.0284 2.9739.685 3.4758 1.2589 3.4758 2.2848 0 1.1369-1.0149 1.8436-2.6483 1.8436-1.8141 0-3.2938-.6111-4.949-2.0445-.0411-.0355-.0974-.0516-.1494-.0486-.0548.0045-.1049.0299-.1397.0718l-1.7015 2.0249c-.0714.0841-.0623.2096.0202.2823 1.9259 1.7193 4.2945 2.6274 6.8506 2.6274 3.616 0 5.9526-1.9757 5.9526-5.0337.0065-2.5815-1.5389-4.0108-5.3241-4.9316zm13.5112-3.0651c-1.5673 0-2.8529.6173-3.913 1.8822v-1.4238c0-.1124-.0911-.2039-.2033-.2039h-2.7829c-.1124 0-.2033.0915-.2033.2039v15.8202c0 .1124.0909.204.2033.204h2.7829c.1122 0 .2033-.0916.2033-.204v-4.9937c1.0603 1.1899 2.3461 1.7713 3.913 1.7713 2.9123 0 5.8604-2.2418 5.8604-6.5274.0043-4.2865-2.9447-6.529-5.8572-6.529zm2.6245 6.5288c0 2.1824-1.3443 3.7052-3.2691 3.7052-1.9029 0-3.3383-1.5921-3.3383-3.7052 0-2.1128 1.4354-3.7051 3.3383-3.7051 1.8937-.0002 3.2693 1.5577 3.2693 3.7049zm10.7922-6.5288c-3.7505 0-6.6888 2.8879-6.6888 6.5755 0 3.6473 2.9181 6.505 6.6428 6.505 3.7639 0 6.7111-2.8783 6.7111-6.5517 0-3.6606-2.9275-6.5284-6.6653-6.5284zm0 10.2557c-1.9949 0-3.4988-1.6028-3.4988-3.7279 0-2.1342 1.4519-3.6829 3.4528-3.6829 2.0078 0 3.5218 1.6029 3.5218 3.7295 0 2.1337-1.4616 3.6813-3.4756 3.6813zm14.6741-10.0012h-3.0623v-3.1309c0-.1122-.0907-.2037-.2031-.2037h-2.7824c-.1127 0-.204.0915-.204.2037v3.1309h-1.338c-.112 0-.2027.0915-.2027.204v2.3916c0 .1122.0907.204.2027.204h1.338v6.1884c0 2.5008 1.2447 3.7688 3.6996 3.7688.9982 0 1.8263-.2061 2.6068-.6487.0634-.0355.1027-.1038.1027-.1765v-2.2775c0-.0703-.0365-.1367-.0967-.1734-.0606-.0381-.136-.04-.1982-.0093-.536.2698-1.0543.3942-1.6335.3942-.8929 0-1.2912-.4054-1.2912-1.3139v-5.751h3.0623c.1124 0 .2029-.0916.2029-.204v-2.3914c.0043-.1125-.086-.204-.1999-.204zm10.6702.0122v-.3845c0-1.1313.433-1.6357 1.406-1.6357.58 0 1.046.1152 1.568.2893.064.0202.131.0101.184-.0284s.084-.1001.084-.1655v-2.34501c0-.08964-.058-.16895-.144-.19539-.552-.16401-1.257-.3323-2.313-.3323-2.5706 0-3.9292 1.4474-3.9292 4.1843v.5889h-1.337c-.1122 0-.2041.0916-.2041.2038v2.4039c0 .1122.0919.204.2041.204h1.337v9.5453c0 .1124.0907.204.2029.204h2.7833c.112 0 .204-.0916.204-.204v-9.5447h2.598l3.98 9.543c-.452 1.0027-.896 1.2022-1.503 1.2022-.49 0-1.006-.1464-1.534-.4353-.05-.0273-.109-.0318-.162-.0152-.053.0187-.098.0582-.121.1098l-.943 2.0693c-.045.0978-.006.2126.088.2633.984.5332 1.873.7609 2.972.7609 2.055 0 3.19-.9572 4.192-3.5322l4.827-12.4752c.025-.0628.017-.1337-.021-.1894-.038-.0552-.1-.0885-.168-.0885h-2.896c-.087 0-.165.0552-.193.1367l-2.968 8.4769-3.251-8.4825c-.029-.0789-.105-.1311-.19-.1311h-4.754zm-6.1865-.0122h-2.7829c-.1124 0-.2039.0915-.2039.204v12.1409c0 .1125.0915.204.2039.204h2.7829c.1122 0 .204-.0915.204-.204v-12.1401c0-.0268-.0052-.0534-.0155-.0782-.0102-.0248-.0252-.0473-.0442-.0662-.019-.019-.0415-.034-.0663-.0442-.0248-.0103-.0514-.0155-.0782-.0154zm-1.3756-5.52812c-1.1025 0-1.9971.89243-1.9971 1.99492 0 1.103.8948 1.9966 1.9971 1.9966 1.102 0 1.9957-.8936 1.9957-1.9966 0-1.10227-.8941-1.99492-1.9946-1.99492zm24.3791 9.43162c-1.102 0-1.959-.8845-1.959-1.9585 0-1.0741.868-1.9687 1.969-1.9687s1.958.8843 1.958 1.9575c0 1.0741-.868 1.9697-1.969 1.9697zm.01-3.7324c-1.003 0-1.762.7974-1.762 1.7739 0 .976.754 1.7627 1.752 1.7627 1.003 0 1.763-.7968 1.763-1.7739 0-.976-.754-1.7627-1.752-1.7627zm.435 1.9641.553.7755h-.467l-.498-.7114h-.429v.7114h-.391v-2.0557h.917c.477 0 .791.2444.791.6558.002.337-.193.5429-.475.6244zm-.331-.9275h-.51v.6502h.51c.254 0 .406-.1244.406-.3254 0-.2115-.153-.3248-.406-.3248z" fill="#adb5bd"/></svg>

<svg width="121" height="36" viewBox="0 0 121 36" fill="none" xmlns="http://www.w3.org/2000/svg">
<path d="M17.9999 0C8.05904 0 0 8.05882 0 17.9997C0 27.9416 8.05904 36 17.9999 36C27.9412 36 35.9998 27.9416 35.9998 17.9997C35.9998 8.05946 27.9416 0.00085911 17.9997 0.00085911L17.9999 0V0ZM26.2545 25.9607C25.9313 26.491 25.2404 26.6571 24.7119 26.334C20.485 23.7507 15.1648 23.1671 8.89923 24.5984C8.29546 24.7368 7.69363 24.3583 7.55607 23.7547C7.41786 23.151 7.79465 22.5491 8.39993 22.4116C15.2566 20.844 21.138 21.5187 25.8825 24.4178C26.4112 24.7424 26.5789 25.4324 26.2543 25.9611L26.2545 25.9607V25.9607ZM28.4577 21.0602C28.0506 21.7208 27.1869 21.928 26.5273 21.5224C21.69 18.5489 14.3138 17.6876 8.59102 19.4248C7.84881 19.6489 7.06493 19.2307 6.83967 18.4898C6.61613 17.7476 7.03462 16.9652 7.77553 16.7395C14.3126 14.756 22.4391 15.7168 27.9953 19.1311C28.6552 19.5374 28.8637 20.4015 28.4575 21.0605L28.4577 21.0602ZM28.6468 15.9567C22.8447 12.5109 13.2742 12.1941 7.73531 13.8751C6.84589 14.1449 5.9053 13.6428 5.63577 12.7534C5.36623 11.8635 5.8679 10.9236 6.75798 10.6532C13.1162 8.72299 23.686 9.09591 30.3651 13.0609C31.1651 13.5357 31.4275 14.569 30.9534 15.3679C30.4805 16.1679 29.4445 16.4317 28.647 15.9567H28.6468V15.9567ZM48.9718 16.617C45.8639 15.8758 45.3106 15.3557 45.3106 14.2627C45.3106 13.2301 46.2828 12.5352 47.7285 12.5352C49.1299 12.5352 50.5195 13.0629 51.9764 14.1492C52.0205 14.1821 52.0757 14.1952 52.1301 14.1866C52.1845 14.1784 52.2326 14.1486 52.2645 14.1036L53.782 11.9645C53.8443 11.8764 53.8273 11.755 53.7433 11.6877C52.0093 10.2964 50.0568 9.61994 47.7745 9.61994C44.4189 9.61994 42.0749 11.6337 42.0749 14.515C42.0749 17.6048 44.0969 18.6989 47.591 19.5434C50.5649 20.2284 51.0668 20.8023 51.0668 21.8282C51.0668 22.9651 50.0519 23.6718 48.4185 23.6718C46.6044 23.6718 45.1247 23.0607 43.4695 21.6273C43.4284 21.5918 43.3721 21.5757 43.3201 21.5787C43.2653 21.5832 43.2152 21.6086 43.1804 21.6505L41.4789 23.6754C41.4075 23.7595 41.4166 23.885 41.4991 23.9577C43.425 25.677 45.7936 26.5851 48.3497 26.5851C51.9657 26.5851 54.3023 24.6094 54.3023 21.5514C54.3088 18.9699 52.7634 17.5406 48.9782 16.6198L48.9718 16.617V16.617ZM62.483 13.5519C60.9157 13.5519 59.6301 14.1692 58.57 15.4341V14.0103C58.57 13.8979 58.4789 13.8064 58.3667 13.8064H55.5838C55.4714 13.8064 55.3805 13.8979 55.3805 14.0103V29.8305C55.3805 29.9429 55.4714 30.0345 55.5838 30.0345H58.3667C58.4789 30.0345 58.57 29.9429 58.57 29.8305V24.8368C59.6303 26.0267 60.9161 26.6081 62.483 26.6081C65.3953 26.6081 68.3434 24.3663 68.3434 20.0807C68.3477 15.7942 65.3987 13.5517 62.4862 13.5517L62.483 13.5519ZM65.1075 20.0807C65.1075 22.2631 63.7632 23.7859 61.8384 23.7859C59.9355 23.7859 58.5001 22.1938 58.5001 20.0807C58.5001 17.9679 59.9355 16.3756 61.8384 16.3756C63.7321 16.3754 65.1077 17.9333 65.1077 20.0805L65.1075 20.0807V20.0807ZM75.8997 13.5519C72.1492 13.5519 69.2109 16.4398 69.2109 20.1274C69.2109 23.7747 72.129 26.6324 75.8537 26.6324C79.6176 26.6324 82.5648 23.7541 82.5648 20.0807C82.5648 16.4201 79.6373 13.5523 75.8995 13.5523L75.8997 13.5519V13.5519ZM75.8997 23.8076C73.9048 23.8076 72.4009 22.2048 72.4009 20.0797C72.4009 17.9455 73.8528 16.3968 75.8537 16.3968C77.8615 16.3968 79.3755 17.9997 79.3755 20.1263C79.3755 22.26 77.9139 23.8076 75.8999 23.8076H75.8997V23.8076ZM90.5738 13.8064H87.5115V10.6755C87.5115 10.5633 87.4208 10.4718 87.3084 10.4718H84.526C84.4133 10.4718 84.322 10.5633 84.322 10.6755V13.8064H82.984C82.872 13.8064 82.7813 13.8979 82.7813 14.0104V16.402C82.7813 16.5142 82.872 16.606 82.984 16.606H84.322V22.7944C84.322 25.2952 85.5667 26.5632 88.0216 26.5632C89.0198 26.5632 89.8479 26.3571 90.6284 25.9145C90.6918 25.879 90.7311 25.8107 90.7311 25.738V23.4605C90.7311 23.3902 90.6946 23.3238 90.6344 23.2871C90.5738 23.249 90.4984 23.2471 90.4362 23.2778C89.9002 23.5476 89.3819 23.672 88.8027 23.672C87.9098 23.672 87.5115 23.2666 87.5115 22.3581V16.6071H90.5738C90.6862 16.6071 90.7767 16.5155 90.7767 16.4031V14.0117C90.781 13.8992 90.6907 13.8077 90.5768 13.8077L90.5738 13.8064V13.8064ZM101.244 13.8186V13.4341C101.244 12.3028 101.677 11.7984 102.65 11.7984C103.23 11.7984 103.696 11.9136 104.218 12.0877C104.282 12.1079 104.349 12.0978 104.402 12.0593C104.455 12.0208 104.486 11.9592 104.486 11.8938V9.54879C104.486 9.45915 104.428 9.37984 104.342 9.3534C103.79 9.18939 103.085 9.0211 102.029 9.0211C99.4584 9.0211 98.0998 10.4685 98.0998 13.2054V13.7943H96.7628C96.6506 13.7943 96.5587 13.8859 96.5587 13.9981V16.402C96.5587 16.5142 96.6506 16.606 96.7628 16.606H98.0998V26.1513C98.0998 26.2637 98.1905 26.3553 98.3027 26.3553H101.086C101.198 26.3553 101.29 26.2637 101.29 26.1513V16.6066H103.888L107.868 26.1496C107.416 27.1523 106.972 27.3518 106.365 27.3518C105.875 27.3518 105.359 27.2054 104.831 26.9165C104.781 26.8892 104.722 26.8847 104.669 26.9013C104.616 26.92 104.571 26.9595 104.548 27.0111L103.605 29.0804C103.56 29.1782 103.599 29.293 103.693 29.3437C104.677 29.8769 105.566 30.1046 106.665 30.1046C108.72 30.1046 109.855 29.1474 110.857 26.5724L115.684 14.0972C115.709 14.0344 115.701 13.9635 115.663 13.9078C115.625 13.8526 115.563 13.8193 115.495 13.8193H112.599C112.512 13.8193 112.434 13.8745 112.406 13.956L109.438 22.4329L106.187 13.9504C106.158 13.8715 106.082 13.8193 105.997 13.8193H101.243L101.244 13.8186V13.8186ZM95.0575 13.8064H92.2746C92.1622 13.8064 92.0707 13.8979 92.0707 14.0104V26.1513C92.0707 26.2638 92.1622 26.3553 92.2746 26.3553H95.0575C95.1697 26.3553 95.2615 26.2638 95.2615 26.1513V14.0112C95.2615 13.9844 95.2563 13.9578 95.246 13.933C95.2358 13.9082 95.2208 13.8857 95.2018 13.8668C95.1828 13.8478 95.1603 13.8328 95.1355 13.8226C95.1107 13.8123 95.0841 13.8071 95.0573 13.8072L95.0575 13.8064ZM93.6819 8.27828C92.5794 8.27828 91.6848 9.17071 91.6848 10.2732C91.6848 11.3762 92.5796 12.2698 93.6819 12.2698C94.7839 12.2698 95.6776 11.3762 95.6776 10.2732C95.6776 9.17093 94.7835 8.27828 93.683 8.27828H93.6819V8.27828ZM118.061 17.7099C116.959 17.7099 116.102 16.8254 116.102 15.7514C116.102 14.6773 116.97 13.7827 118.071 13.7827C119.172 13.7827 120.029 14.667 120.029 15.7402C120.029 16.8143 119.161 17.7099 118.06 17.7099H118.061V17.7099ZM118.071 13.9775C117.068 13.9775 116.309 14.7749 116.309 15.7514C116.309 16.7274 117.063 17.5141 118.061 17.5141C119.064 17.5141 119.824 16.7173 119.824 15.7402C119.824 14.7642 119.07 13.9775 118.072 13.9775H118.071V13.9775ZM118.506 15.9416L119.059 16.7171H118.592L118.094 16.0057H117.665V16.7171H117.274V14.6614H118.191C118.668 14.6614 118.982 14.9058 118.982 15.3172C118.984 15.6542 118.789 15.8601 118.507 15.9416H118.506V15.9416ZM118.175 15.0141H117.665V15.6643H118.175C118.429 15.6643 118.581 15.5399 118.581 15.3389C118.581 15.1274 118.428 15.0141 118.175 15.0141H118.175V15.0141Z" fill="#ADB5BD"/>
</svg>
